svg/u1f6bb.svg

<svg viewBox="0 0 128 128" xmlns="http://www.w3.org/2000/svg">
  <path d="M116,4H12c-4.42,0-8,3.58-8,8v104c0,4.42,3.58,8,8,8h104c4.42,0,8-3.58,8-8V12 C124,7.58,120.42,4,116,4z" fill="#194FA5"/>
  <path d="M109.7,4H11.5C7.37,4.03,4.03,7.37,4,11.5v97.9c-0.01,4.14,3.34,7.49,7.48,7.5c0.01,0,0.01,0,0.02,0 h98.1c4.14,0.01,7.49-3.34,7.5-7.48c0-0.01,0-0.01,0-0.02V11.5c0.09-4.05-3.13-7.41-7.18-7.5C109.85,4,109.77,4,109.7,4z" fill="#2262DD"/>
  <path d="M39.7,12.9c0-2.3-1.6-3-10.8-2.7c-7.7,0.3-11.5,1.2-13.8,4 c-1.9,2.3-2.3,5.6-2.6,8.4c-0.2,2.2-2.2,14.9,3.5,11.2c0.68-0.45,1.23-1.07,1.6-1.8c1.2-2.1,1.9-3.5,3.3-5.6 C26.2,17.8,39.7,15.9,39.7,12.9z" opacity="0.65" fill="#68ABE6" enable-background="new "/>
  <g>
    <circle cx="86.35" cy="25.47" r="9.35" fill="#FFFFFF"/>
    <path d="M107.71,68.08l-8.67-25.25c-1.13-3.49-6.4-6.13-12.74-6.13c-6.32,0-11.58,2.63-12.74,6.1 l-8.56,25.29c-0.59,1.75,0.3,3.66,1.98,4.27c1.68,0.61,3.52-0.31,4.1-2.06l5.15-16.47c0.09-0.28,0.5-0.22,0.5,0.08v5.35H76.7 l-5.94,24.43c-0.26,1.06,0.51,2.09,1.56,2.09h3.59c0.45,0,0.8,0.37,0.8,0.84v14.9c0,2.19,1.54,4.14,3.64,4.35 c2.4,0.23,4.42-1.72,4.42-4.17V87.44c0-0.93,0.72-1.67,1.61-1.67S88,86.52,88,87.44v14.06c0,2.19,1.54,4.14,3.64,4.35 c2.4,0.23,4.42-1.72,4.42-4.17V86.61c0-0.46,0.36-0.84,0.8-0.84h3.54c1.05,0,1.82-1.03,1.56-2.09l-5.92-24.34v-5.42 c0-0.3,0.4-0.36,0.5-0.08l5.07,16.45c0.59,1.75,2.42,2.66,4.1,2.06C107.41,71.74,108.29,69.83,107.71,68.08z" fill="#FFFFFF"/>
    <circle cx="34.03" cy="25.47" r="9.35" fill="#FFFFFF"/>
    <path d="M53.4,72.35c1.68-0.61,2.56-2.52,1.98-4.27l-8.67-25.25c-1.13-3.49-6.4-6.13-12.74-6.13 c-6.32,0-11.58,2.63-12.74,6.1l-8.56,25.29c-0.59,1.75,0.3,3.66,1.98,4.27c1.68,0.61,3.52-0.31,4.1-2.06l5.15-16.47 c0.09-0.28,0.5-0.22,0.5,0.08v47.79c0,2.31,1.8,4.19,4.03,4.19s4.03-1.88,4.03-4.19V71.78c0-0.93,0.72-1.67,1.61-1.67 c0.89,0,1.61,0.75,1.61,1.67v29.91c0,2.31,1.8,4.19,4.03,4.19c2.23,0,4.03-1.88,4.03-4.19V53.93c0-0.3,0.4-0.36,0.5-0.08 l5.07,16.45C49.89,72.04,51.73,72.96,53.4,72.35L53.4,72.35z" fill="#FFFFFF"/>
    <path d="M60.01,105.88c-1.29,0-2.34-1.05-2.34-2.34V18.46c0-1.29,1.05-2.34,2.34-2.34s2.34,1.05,2.34,2.34 v85.08C62.35,104.83,61.3,105.88,60.01,105.88z" fill="#FAFAFA"/>
  </g>
  <path d="M39.7,12.9c0-2.3-1.6-3-10.8-2.7c-7.7,0.3-11.5,1.2-13.8,4 c-1.9,2.3-2.3,5.6-2.6,8.4c-0.2,2.2-2.2,14.9,3.5,11.2c0.68-0.45,1.23-1.07,1.6-1.8c1.2-2.1,1.9-3.5,3.3-5.6 C26.2,17.8,39.7,15.9,39.7,12.9z" opacity="0.3" fill="#68ABE6" enable-background="new "/>
</svg>

<svg viewBox="0 0 128 128" xmlns="http://www.w3.org/2000/svg">
  <defs/>
  <path d="M116,4 L12,4 C7.58,4 4,7.58 4,12 L4,116 C4,120.42 7.58,124 12,124 L116,124 C120.42,124 124,120.42 124,116 L124,12 C124,7.58 120.42,4 116,4 Z" fill="#194FA5"/>
  <path d="M109.7,4 L11.5,4 C7.37,4.03 4.03,7.37 4,11.5 L4,109.4 C3.99,113.54 7.34,116.89 11.48,116.9 C11.49,116.9 11.49,116.9 11.5,116.9 L109.6,116.9 C113.74,116.91 117.09,113.56 117.1,109.42 C117.1,109.41 117.1,109.41 117.1,109.4 L117.1,11.5 C117.19,7.45 113.97,4.09 109.92,4 C109.85,4 109.77,4 109.7,4 Z" fill="#2262DD"/>
  <path d="M39.7,12.9 C39.7,10.6 38.1,9.9 28.9,10.2 C21.2,10.5 17.4,11.4 15.1,14.2 C13.2,16.5 12.8,19.8 12.5,22.6 C12.3,24.8 10.3,37.5 16,33.8 C16.68,33.35 17.23,32.73 17.6,32 C18.8,29.9 19.5,28.5 20.9,26.4 C26.2,17.8 39.7,15.9 39.7,12.9 Z" fill="#68ABE6" opacity="0.65"/>
  <path d="M95.7,25.47 A9.35 9.35 0 1 1 77,25.47 A9.35 9.35 0 1 1 95.7,25.47 Z" fill="#FFFFFF"/>
  <path d="M107.71,68.08 L99.04,42.83 C97.91,39.34 92.64,36.7 86.3,36.7 C79.98,36.7 74.72,39.33 73.56,42.8 L65,68.09 C64.41,69.84 65.3,71.75 66.98,72.36 C68.66,72.97 70.5,72.05 71.08,70.3 L76.23,53.83 C76.32,53.55 76.73,53.61 76.73,53.91 L76.73,59.26 L76.7,59.26 L70.76,83.69 C70.5,84.75 71.27,85.78 72.32,85.78 L75.91,85.78 C76.36,85.78 76.71,86.15 76.71,86.62 L76.71,101.52 C76.71,103.71 78.25,105.66 80.35,105.87 C82.75,106.1 84.77,104.15 84.77,101.7 L84.77,87.44 C84.77,86.51 85.49,85.77 86.38,85.77 C87.27,85.77 88,86.52 88,87.44 L88,101.5 C88,103.69 89.54,105.64 91.64,105.85 C94.04,106.08 96.06,104.13 96.06,101.68 L96.06,86.61 C96.06,86.15 96.42,85.77 96.86,85.77 L100.4,85.77 C101.45,85.77 102.22,84.74 101.96,83.68 L96.04,59.34 L96.04,53.92 C96.04,53.62 96.44,53.56 96.54,53.84 L101.61,70.29 C102.2,72.04 104.03,72.95 105.71,72.35 C107.41,71.74 108.29,69.83 107.71,68.08 Z" fill="#FFFFFF"/>
  <path d="M43.38,25.47 A9.35 9.35 0 1 1 24.68,25.47 A9.35 9.35 0 1 1 43.38,25.47 Z" fill="#FFFFFF"/>
  <path d="M53.4,72.35 C55.08,71.74 55.96,69.83 55.38,68.08 L46.71,42.83 C45.58,39.34 40.31,36.7 33.97,36.7 C27.65,36.7 22.39,39.33 21.23,42.8 L12.67,68.09 C12.08,69.84 12.97,71.75 14.65,72.36 C16.33,72.97 18.17,72.05 18.75,70.3 L23.9,53.83 C23.99,53.55 24.4,53.61 24.4,53.91 L24.4,101.7 C24.4,104.01 26.2,105.89 28.43,105.89 C30.66,105.89 32.46,104.01 32.46,101.7 L32.46,71.78 C32.46,70.85 33.18,70.11 34.07,70.11 C34.96,70.11 35.68,70.86 35.68,71.78 L35.68,101.69 C35.68,104 37.48,105.88 39.71,105.88 C41.94,105.88 43.74,104 43.74,101.69 L43.74,53.93 C43.74,53.63 44.14,53.57 44.24,53.85 L49.31,70.3 C49.89,72.04 51.73,72.96 53.4,72.35 L53.4,72.35 Z" fill="#FFFFFF"/>
  <path d="M60.01,105.88 C58.72,105.88 57.67,104.83 57.67,103.54 L57.67,18.46 C57.67,17.17 58.72,16.12 60.01,16.12 C61.3,16.12 62.35,17.17 62.35,18.46 L62.35,103.54 C62.35,104.83 61.3,105.88 60.01,105.88 Z" fill="#FAFAFA"/>
  <path d="M39.7,12.9 C39.7,10.6 38.1,9.9 28.9,10.2 C21.2,10.5 17.4,11.4 15.1,14.2 C13.2,16.5 12.8,19.8 12.5,22.6 C12.3,24.8 10.3,37.5 16,33.8 C16.68,33.35 17.23,32.73 17.6,32 C18.8,29.9 19.5,28.5 20.9,26.4 C26.2,17.8 39.7,15.9 39.7,12.9 Z" fill="#68ABE6" opacity="0.3"/>
</svg>
